X: 2
T: Eleanor Plunkett
R: waltz
M: 3/4
L: 1/8
K: Gmaj
GA|"G"B2 B2 AG|"G/B"G2 G2 ag|"C"e2 e2 ed|"Em"B4 AG |"Am7"E2 A2 AB|"D"A4 ga|
"Em"b2 ag ed|"C"e4 ef|"Em"g2 g2 b2|"D"a2 ba gf|"Em"g2 ag fe|
"G"d2 B3 d|"C"e2 g2 G2|"G"B4 AG|"Am7"E2 A2 AB|"D"A4||


Tune 2575	Setting 2575

